X:1
T:Dark haired girl
M:2/4
L:1/16
K:G
GA|[G3B3][GA] [GB][Gc][GB][GA] | [G4B4] [G2B2] g2 | edBc dBGA | BGAB A2GA|!
[G3B3][GA] [GB][Gc][GB][GA] | [G4B4] [G2B2] g2 | edBc dBcA | BG2G G2:|]!
g3a b3g |a2ab age2 | gaba g3e |d2de dcB2|!
g3a b3g |a2ab age2 | efge dBAc | BG2G G4:|]!
